www/assets/icons/camera_rear.svg

<svg xmlns="http://www.w3.org/2000/svg" width="24" height="24" viewBox="0 0 24 24" fill='currentColor'><path d="M10 20H5v2h5v2l3-3-3-3zm4 0v2h5v-2zm3-20H7C5.9 0 5 .9 5 2v14c0 1.1.9 2 2 2h10c1.1 0 2-.9 2-2V2c0-1.1-.9-2-2-2m-5 6a2 2 0 0 1-2-2c0-1.1.89-2 1.99-2s2 .9 2 2C14 5.1 13.1 6 12 6"/></svg>

<svg width="24" height="24" viewBox="0 0 24 24" xmlns="http://www.w3.org/2000/svg" fill='currentColor'><path d="M10 20H5V22H10V24L13 21L10 18V20ZM14 20V22H19V20H14ZM17 0H7C5.9 0 5 0.9 5 2V16C5 17.1 5.9 18 7 18H17C18.1 18 19 17.1 19 16V2C19 0.9 18.1 0 17 0ZM12 6C10.89 6 10 5.1 10 4C10 2.9 10.89 2 11.99 2C13.09 2 13.99 2.9 13.99 4C14 5.1 13.1 6 12 6Z"/></svg>
